**kern	**kern	**dynam
*part1	*part1	*part1
*staff2	*staff1	*
*I"Piano	*	*
*clefF4	*clefG2	*
*k[f#c#g#d#]	*k[f#c#g#d#]	*
=1	=1	=1
*^	*	*
2BB	4.EE	4r	.
.	.	8BL 8e 8g#	.
.	8BBB	8AJ 8d# 8f#	.
=	=	=	=
4BB	2EE	2G# 2e 2g#	.
4BB	.	.	.
*v	*v	*	*
=	=	=
4CC# 4C#	4G# 4c# 4e	<
4FFF# 4FF#	4A 4c# 4f#	.
*	*clefF4	*
=	=	=
2AAA 2AA	4c#	[
*	*^	*
.	4F# 4e	8c#L	.
.	.	8cnJ	.
*	*v	*v	*
=	=	=
(2BBB [2BB	4F# 4B 4d#	<
*	*clefG2	*
.	4A 4c# 4f#	.
=	=	=
*^	*	*
2BB]	4BBB)	4B 4d# 4g#	[ >
.	4rGG	8c#L 8e 8a	.
.	.	8d#J 8f#	.
=	=	=	=
4F#	4AA	4B 4d# 4b	] <
4E	8GG#L	[8BL [8e 8b	.
.	8EEJ	8BJ] 8e] 8g#	.
*v	*v	*	*
=	=	=
*-	*-	*-
!!!system-decoration: {(s1,s2)}
